X:42
T:Greenwood
T:The Huntsman
M:6/4
L:1/4
K:GDor
f2 f f2 c | d c2 A2 c | =B>cd def | g>a f e2 d | f2 f f2 c | d c2 A2 f | e2 d c>BA | =B3 G3 ||
%
%
